X: 40236
T: Tipperty's Jean
R: jig
M: 6/8
K: Dmajor
|:dcB|A2 A ABc|dAA Adc|BBB Bcd|e3 ecA|
fff eee|dAA Adc|B2 d cBc|d3:|
d2 A|dfa afd|egb bge|dfa dcd|e3 ecA|
dfa afd|egb bge|ded cBc|d3 d2 A|
dfa afd|egb bge|dfa dcd|edc BAG|
FGA ABc|dAA Aag|fed cBc|d3 d3|
FBB Bcd|cFF F3|BBB Bcd|e3 ecA|
fff eee|dAA Adc|B2 d cBc|d3 d3|
FBB Bcd|cFF F3|dcd def|edc BAG|
FGA ABc|dAA Aag|fed cBc|d3||

